svg/emoji_u1f63e.svg

<?xml version="1.0" encoding="UTF-8" standalone="no"?>
<svg
   xmlns:dc="http://purl.org/dc/elements/1.1/"
   xmlns:cc="http://creativecommons.org/ns#"
   xmlns:rdf="http://www.w3.org/1999/02/22-rdf-syntax-ns#"
   xmlns:svg="http://www.w3.org/2000/svg"
   xmlns="http://www.w3.org/2000/svg"
   xmlns:sodipodi="http://sodipodi.sourceforge.net/DTD/sodipodi-0.dtd"
   xmlns:inkscape="http://www.inkscape.org/namespaces/inkscape"
   width="128"
   height="128"
   style="enable-background:new 0 0 128 128;"
   version="1.1"
   id="svg16"
   sodipodi:docname="emoji_u1f63e.svg"
   inkscape:version="0.92+devel unknown">
  <metadata
     id="metadata22">
    <rdf:RDF>
      <cc:Work
         rdf:about="">
        <dc:format>image/svg+xml</dc:format>
        <dc:type
           rdf:resource="http://purl.org/dc/dcmitype/StillImage" />
      </cc:Work>
    </rdf:RDF>
  </metadata>
  <defs
     id="defs20" />
  <sodipodi:namedview
     pagecolor="#ffffff"
     bordercolor="#666666"
     inkscape:document-rotation="0"
     borderopacity="1"
     objecttolerance="10"
     gridtolerance="10"
     guidetolerance="10"
     inkscape:pageopacity="0"
     inkscape:pageshadow="2"
     inkscape:window-width="1680"
     inkscape:window-height="986"
     id="namedview18"
     showgrid="false"
     inkscape:zoom="5.6568543"
     inkscape:cx="49.906078"
     inkscape:cy="64.419643"
     inkscape:window-x="0"
     inkscape:window-y="27"
     inkscape:window-maximized="1"
     inkscape:current-layer="svg16" />
  <ellipse
     id="ellipse2"
     style="fill:#2f2f2f"
     ry="32.41"
     rx="43.200001"
     cy="83.349998"
     cx="61.75" />
  <path
     style="fill:#f3c89c;fill-opacity:1"
     d="M 32.400391 12.533203 C 31.850332 12.555681 31.321641 12.674687 30.820312 12.900391 C 23.123017 16.378736 20.199283 36.822755 19.119141 48.896484 C 19.112798 48.968026 19.107774 49.032584 19.101562 49.103516 C 19.105493 49.059206 19.107065 49.024724 19.109375 48.990234 C 18.896087 51.386774 18.728479 53.565003 18.640625 55.080078 C 18.684321 54.326527 18.796207 53.07016 18.875 52.042969 C 22.082089 53.608877 25.791475 54.470703 29.935547 54.470703 C 33.298615 54.470703 36.375141 54.113801 39.199219 53.355469 C 42.722337 54.625749 46.138735 55.859338 49.140625 56.527344 C 57.560711 58.401053 59.332882 67.390279 57.111328 75.246094 C 50.512573 98.580479 36.205542 103.13477 17.232422 103.13477 C 14.337106 103.13477 11.657487 102.85846 9.1894531 102.3418 L 9.1875 102.3418 L 6.6503906 103.15039 C 5.5303906 103.50039 4.8997656 104.70008 5.2597656 105.83008 C 5.5497656 106.74008 6.3890625 107.32031 7.2890625 107.32031 C 7.4990625 107.32031 7.7194531 107.2907 7.9394531 107.2207 L 16.919922 104.36914 C 18.449922 106.21914 20.250391 107.97031 22.400391 109.57031 C 28.450391 114.08031 35.970469 117.14078 43.730469 118.80078 C 46.680469 119.43078 54.289297 120.90039 62.279297 120.90039 C 70.269297 120.90039 78.630078 119.43078 81.580078 118.80078 C 89.330078 117.14078 96.860152 114.08031 102.91016 109.57031 C 105.32016 107.77031 107.28992 105.78969 108.91992 103.67969 L 120.08008 107.23047 C 120.29008 107.30047 120.51047 107.33008 120.73047 107.33008 C 121.63047 107.33008 122.46977 106.74984 122.75977 105.83984 C 123.10977 104.71984 122.48914 103.51016 121.36914 103.16016 L 118.80078 102.34375 L 118.79883 102.34375 C 116.33396 102.85885 113.65839 103.13477 110.76758 103.13477 C 91.794451 103.13477 77.487428 98.580478 70.888672 75.246094 C 68.693778 67.484555 64.910856 62.056913 72.03125 57.4375 C 75.047138 55.480918 80.024098 53.672433 85.46875 52.224609 C 89.152564 53.782497 93.329253 54.470703 98.064453 54.470703 C 101.28247 54.470703 104.23741 53.948071 106.90039 52.984375 L 106.90234 52.984375 C 106.2029 42.240587 103.66089 16.904966 95.009766 12.960938 C 87.889766 9.720937 75.280547 28.21 71.310547 34.75 C 71.080547 35.13 70.860625 35.479844 70.640625 35.839844 C 67.990625 35.539844 65.310625 35.359375 62.640625 35.359375 C 60.110625 35.359375 57.580547 35.530781 55.060547 35.800781 C 54.860547 35.460781 54.659453 35.129297 54.439453 34.779297 C 50.868828 28.834297 40.22782 13.059505 32.957031 12.542969 C 32.768994 12.52961 32.583743 12.52571 32.400391 12.533203 z M 126.34375 83.333984 C 126.24271 83.426538 126.13378 83.509926 126.01562 83.582031 C 126.13336 83.509999 126.24301 83.426323 126.34375 83.333984 z M 125.63867 83.763672 C 125.50587 83.81201 125.3657 83.847891 125.2207 83.869141 C 125.36661 83.847758 125.5051 83.812472 125.63867 83.763672 z "
     id="path4" />
  <path
     d="M62.3,95.12c10.03-1.77,16.76,3,17.04,3.2c1.05,0.76,1.28,2.22,0.52,3.27 c-0.76,1.05-2.22,1.28-3.27,0.53c-0.21-0.15-5.48-3.8-13.48-2.39c-8,1.41-11.71,6.64-11.86,6.86c-0.73,1.06-2.19,1.33-3.25,0.6 c-1.06-0.73-1.34-2.17-0.62-3.24C47.58,103.67,52.28,96.89,62.3,95.12z"
     style="fill:#2F2F2F;"
     id="path8" />
  <path
     style="vector-effect:none;fill:#60503a;fill-opacity:1;stroke-width:0.99999994"
     d="M 19.117188 48.896484 C 19.109893 48.978017 19.108748 49.022497 19.101562 49.103516 C 19.107774 49.032584 19.112798 48.968026 19.119141 48.896484 C 19.118496 48.896504 19.117833 48.896464 19.117188 48.896484 z M 18.875 52.042969 C 18.796207 53.07016 18.684321 54.326527 18.640625 55.080078 C 13.560625 61.930078 10.420859 69.990156 9.8808594 77.910156 C 9.8208594 78.810156 9.7797656 79.699844 9.7597656 80.589844 L 3.4003906 79.640625 C 2.2403906 79.480625 1.1504687 80.269453 0.98046875 81.439453 C 0.80046875 82.609453 1.6092969 83.689375 2.7792969 83.859375 L 9.8398438 84.910156 C 9.9598436 86.890156 10.189844 88.849531 10.589844 90.769531 L 2.9101562 92.150391 C 1.7501563 92.360391 0.97945316 93.470859 1.1894531 94.630859 C 1.3794531 95.660859 2.2790625 96.380859 3.2890625 96.380859 C 3.4090625 96.380859 3.5399219 96.369609 3.6699219 96.349609 L 11.699219 94.900391 C 12.369219 96.900391 13.249609 98.839215 14.349609 100.69922 L 9.1875 102.3418 C 11.656045 102.85871 14.336382 103.13477 17.232422 103.13477 C 36.205542 103.13477 50.512573 98.580479 57.111328 75.246094 C 59.332882 67.390279 57.560711 58.401053 49.140625 56.527344 C 46.138735 55.859338 42.722337 54.625749 39.199219 53.355469 C 36.375141 54.113801 33.298615 54.470703 29.935547 54.470703 C 25.791475 54.470703 22.082089 53.608877 18.875 52.042969 z "
     id="path4283" />
  <path
     style="vector-effect:none;fill:#60503a;fill-opacity:1;stroke-width:0.99999994"
     d="M 106.78906 51.505859 C 106.82126 51.953218 106.86979 52.500301 106.89648 52.908203 C 106.86568 52.473959 106.82544 51.980092 106.78906 51.505859 z M 85.46875 52.224609 C 80.024098 53.672433 75.047138 55.480918 72.03125 57.4375 C 64.910856 62.056913 68.693778 67.484555 70.888672 75.246094 C 77.487428 98.580478 91.794455 103.13477 110.76758 103.13477 C 113.65912 103.13477 116.3354 102.8591 118.80078 102.34375 L 111.35938 99.980469 C 112.33938 98.200469 113.14023 96.349219 113.74023 94.449219 L 124.33008 96.359375 C 124.46008 96.379375 124.59094 96.390625 124.71094 96.390625 C 125.72094 96.390625 126.62055 95.670625 126.81055 94.640625 C 127.01055 93.490625 126.24008 92.379922 125.08008 92.169922 L 114.7793 90.310547 C 115.0893 88.670547 115.30016 87.010078 115.41016 85.330078 L 125.2207 83.869141 C 126.3807 83.699141 127.18953 82.609219 127.01953 81.449219 C 126.83953 80.279219 125.76984 79.490391 124.58984 79.650391 L 115.51953 81 C 115.49953 79.98 115.47043 78.949922 115.40039 77.919922 C 114.88039 70.209922 111.91031 62.370625 107.07031 55.640625 C 107.03377 54.929327 106.97365 53.995565 106.90234 52.984375 C 106.90234 52.984328 106.90039 52.984422 106.90039 52.984375 C 104.23741 53.948071 101.28247 54.470703 98.064453 54.470703 C 93.329253 54.470703 89.152564 53.782497 85.46875 52.224609 z "
     id="path4286" />
  <path
     inkscape:connector-curvature="0"
     id="path10"
     style="fill:#1c2327;fill-opacity:1"
     d="m 42.99,69.86 c 0.94,0.08 1.72,0.82 1.81,1.75 0,0.01 0,0.01 0,0.02 0.5,5.74 -2.99,10.73 -7.78,11.15 -4.79,0.42 -9.1,-3.89 -9.61,-9.63 -0.19,-2.15 0.19,-4.2 0.98,-5.94 0.49,-1.07 1.82,-1.44 2.84,-0.85 3.31,1.91 7.35,3.15 11.76,3.5 z" />
  <path
     inkscape:connector-curvature="0"
     id="path12"
     style="fill:#1c2327;fill-opacity:1"
     d="m 81.37,69.86 c -0.94,0.08 -1.72,0.82 -1.81,1.75 0,0.01 0,0.01 0,0.02 -0.5,5.74 2.99,10.73 7.78,11.15 4.79,0.42 9.1,-3.89 9.61,-9.63 0.19,-2.15 -0.19,-4.2 -0.98,-5.94 -0.49,-1.07 -1.82,-1.44 -2.84,-0.85 -3.31,1.91 -7.35,3.15 -11.76,3.5 z" />
  <path
     style="opacity:1;vector-effect:none;fill:#433a30;fill-opacity:1;stroke-width:0.99999994;stroke-linecap:butt;stroke-linejoin:miter;stroke-miterlimit:4;stroke-dasharray:none;stroke-dashoffset:0;stroke-opacity:1"
     d="M 32.957031 12.542969 C 32.204881 12.489534 31.48875 12.599453 30.820312 12.900391 C 22.396211 16.707174 19.674512 40.824601 18.851562 52.033203 C 22.063834 53.606136 25.781705 54.470703 29.935547 54.470703 C 42.771449 54.470703 51.527591 49.442955 57.378906 35.603516 C 56.605587 35.665434 55.832277 35.718096 55.060547 35.800781 C 54.860547 35.460781 54.659453 35.129297 54.439453 34.779297 C 50.868828 28.834297 40.22782 13.059505 32.957031 12.542969 z "
     id="path4316" />
  <path
     style="opacity:1;vector-effect:none;fill:#433a30;fill-opacity:1;stroke-width:0.99999994;stroke-linecap:butt;stroke-linejoin:miter;stroke-miterlimit:4;stroke-dasharray:none;stroke-dashoffset:0;stroke-opacity:1"
     d="M 92.875 12.59375 C 85.602176 13.081638 74.908359 28.823125 71.310547 34.75 C 71.096627 35.103433 70.892164 35.42996 70.6875 35.763672 C 76.538596 49.48406 85.277236 54.470703 98.064453 54.470703 C 101.28317 54.470703 104.23891 53.948472 106.90234 52.984375 C 106.2029 42.240587 103.66089 16.904967 95.009766 12.960938 C 94.342266 12.657187 93.627361 12.543279 92.875 12.59375 z "
     id="path4335" />
  <path
     inkscape:connector-curvature="0"
     id="path5837"
     d="m 100.62381,49.478495 c 0,0 5.88964,-64.229339 -25.942579,-11.535066 0,0 16.015203,4.05554 25.942579,11.535066 z"
     style="opacity:1;vector-effect:none;fill:#f0c4b1;fill-opacity:1;fill-rule:evenodd;stroke:none;stroke-width:3.77952766;stroke-linecap:round;stroke-linejoin:round;stroke-miterlimit:4;stroke-dasharray:none;stroke-dashoffset:0;stroke-opacity:1" />
  <path
     style="opacity:1;vector-effect:none;fill:#f0c4b1;fill-opacity:1;fill-rule:evenodd;stroke:none;stroke-width:3.77952766;stroke-linecap:round;stroke-linejoin:round;stroke-miterlimit:4;stroke-dasharray:none;stroke-dashoffset:0;stroke-opacity:1"
     d="m 23.30904,49.693064 c 0,0 -3.540884,-67.666951 28.515207,-11.265788 0,0 -17.468859,3.734473 -28.515207,11.265788 z"
     id="path5835"
     inkscape:connector-curvature="0" />
</svg>

<svg xmlns="http://www.w3.org/2000/svg" width="128" height="128"><ellipse ry="32.41" rx="43.2" cy="83.35" cx="61.75" fill="#2f2f2f"/><path d="M32.4 12.533a4.236 4.236 0 0 0-1.58.367c-7.697 3.479-10.62 23.923-11.7 35.996l-.018.208.007-.114c-.213 2.397-.38 4.575-.468 6.09.043-.753.155-2.01.234-3.037 3.207 1.566 6.916 2.428 11.06 2.428 3.364 0 6.44-.357 9.264-1.116 3.523 1.27 6.94 2.504 9.942 3.172 8.42 1.874 10.192 10.863 7.97 18.72-6.598 23.333-20.905 27.888-39.879 27.888-2.895 0-5.575-.277-8.043-.793h-.002l-2.537.808a2.135 2.135 0 1 0 1.29 4.07l8.98-2.85a31.382 31.382 0 0 0 5.48 5.2c6.05 4.51 13.57 7.57 21.33 9.23 2.95.63 10.56 2.1 18.55 2.1s16.35-1.47 19.3-2.1c7.75-1.66 15.28-4.72 21.33-9.23 2.41-1.8 4.38-3.78 6.01-5.89l11.16 3.55a2.135 2.135 0 0 0 2.68-1.39c.35-1.12-.27-2.33-1.39-2.68l-2.57-.816h-.001c-2.465.515-5.14.79-8.031.79-18.974 0-33.28-4.554-39.88-27.888-2.194-7.761-5.977-13.19 1.143-17.808 3.016-1.957 7.993-3.766 13.438-5.213 3.684 1.557 7.86 2.246 12.595 2.246 3.218 0 6.173-.523 8.836-1.487h.002c-.7-10.743-3.241-36.079-11.892-40.023-7.12-3.24-19.73 15.249-23.7 21.789-.23.38-.45.73-.67 1.09-2.65-.3-5.33-.48-8-.48-2.53 0-5.06.17-7.58.44-.2-.34-.4-.67-.62-1.02-3.571-5.946-14.212-21.72-21.483-22.237a4.979 4.979 0 0 0-.557-.01zm93.944 70.801zm-.705.43z" fill="#f3c89c"/><path d="M62.3 95.12c10.03-1.77 16.76 3 17.04 3.2 1.05.76 1.28 2.22.52 3.27a2.348 2.348 0 0 1-3.27.53c-.21-.15-5.48-3.8-13.48-2.39-8 1.41-11.71 6.64-11.86 6.86a2.342 2.342 0 0 1-3.87-2.64c.2-.28 4.9-7.06 14.92-8.83z" fill="#2f2f2f"/><path d="M19.117 48.896c-.007.082-.008.126-.015.208.006-.071.01-.136.017-.208h-.002zm-.242 3.147c-.079 1.027-.19 2.284-.234 3.037-5.08 6.85-8.22 14.91-8.76 22.83-.06.9-.101 1.79-.121 2.68l-6.36-.95c-1.16-.16-2.25.63-2.42 1.8a2.119 2.119 0 0 0 1.8 2.42l7.06 1.05c.12 1.98.35 3.94.75 5.86l-7.68 1.38a2.135 2.135 0 0 0-1.72 2.48 2.139 2.139 0 0 0 2.48 1.72l8.03-1.45c.67 2 1.55 3.94 2.65 5.8l-5.162 1.642c2.468.517 5.148.793 8.044.793 18.974 0 33.28-4.555 39.88-27.889 2.22-7.856.449-16.845-7.971-18.719-3.002-.668-6.419-1.901-9.942-3.172-2.824.759-5.9 1.116-9.263 1.116-4.145 0-7.854-.862-11.061-2.428zM106.79 51.506c.031.447.08.994.106 1.402-.03-.434-.07-.928-.107-1.402zm-21.321.719c-5.445 1.447-10.422 3.256-13.438 5.212-7.12 4.62-3.337 10.048-1.142 17.81 6.598 23.333 20.905 27.888 39.879 27.888 2.891 0 5.567-.276 8.033-.791l-7.442-2.364c.98-1.78 1.781-3.63 2.381-5.53l10.59 1.91c.13.02.26.03.38.03 1.01 0 1.91-.72 2.1-1.75.2-1.15-.57-2.26-1.73-2.47l-10.3-1.86c.31-1.64.52-3.3.63-4.98l9.81-1.46a2.139 2.139 0 0 0 1.8-2.42 2.143 2.143 0 0 0-2.43-1.8L115.52 81a63.84 63.84 0 0 0-.12-3.08c-.52-7.71-3.49-15.55-8.33-22.28-.036-.71-.096-1.644-.168-2.656h-.002c-2.663.964-5.618 1.487-8.836 1.487-4.735 0-8.911-.689-12.595-2.246z" fill="#60503a"/><path d="M42.99 69.86c.94.08 1.72.82 1.81 1.75v.02c.5 5.74-2.99 10.73-7.78 11.15-4.79.42-9.1-3.89-9.61-9.63-.19-2.15.19-4.2.98-5.94.49-1.07 1.82-1.44 2.84-.85 3.31 1.91 7.35 3.15 11.76 3.5zM81.37 69.86c-.94.08-1.72.82-1.81 1.75v.02c-.5 5.74 2.99 10.73 7.78 11.15 4.79.42 9.1-3.89 9.61-9.63.19-2.15-.19-4.2-.98-5.94-.49-1.07-1.82-1.44-2.84-.85-3.31 1.91-7.35 3.15-11.76 3.5z" fill="#1c2327"/><path d="M32.957 12.543c-.752-.053-1.468.056-2.137.357-8.424 3.807-11.145 27.925-11.968 39.133 3.212 1.573 6.93 2.438 11.084 2.438 12.835 0 21.592-5.028 27.443-18.867-.773.061-1.547.114-2.318.197-.2-.34-.402-.672-.622-1.022-3.57-5.945-14.211-21.72-21.482-22.236zM92.875 12.594c-7.273.488-17.967 16.23-21.564 22.156-.214.353-.419.68-.624 1.014 5.852 13.72 14.59 18.707 27.377 18.707 3.22 0 6.175-.523 8.838-1.487-.7-10.743-3.241-36.079-11.892-40.023a4.37 4.37 0 0 0-2.135-.367z" fill="#433a30"/><path d="M100.624 49.478s5.89-64.229-25.943-11.535c0 0 16.015 4.056 25.943 11.535zM23.309 49.693s-3.54-67.667 28.515-11.266c0 0-17.469 3.735-28.515 11.266z" fill="#f0c4b1" fill-rule="evenodd" stroke-width="3.78" stroke-linecap="round" stroke-linejoin="round"/></svg>
